X:114
T:Gloucestershire Hornpipe, The
R:hp 32
C:Trad. ed. OSB
S:Gamesters, Pickpockets and Harlots
Z:PJHeadford 2011
M:4/4
L:1/8
Q:2/4=75
K:G
|:G,3G G2G2|AGAF G2GA|BABG cBcA|BABG FGAF|[G,3G3]G G2G2|
AGAF G2G2|FGAB AGFE|1D2DE DCB,A,:|2D4D2|]
|:dc|dcBA GFED|E2C2 C2ed|eded cBAG|F2D2 D2Bc|
dBdB e2e2|dBdB e2e2|dgfe dcBA|G2B2 G2:|]

